X:312
T:Walsh's Hornpipe 
B:CRE2.312 (CornphÃÂÃÂÃÂÃÂ­opa an Bhreathnaigh)
F:file ID: cre.2/312walsh
S:Denis Murphy
L:1/8
M:C
R:Hornpipe
Q:150
K:A
E2|(3ABc EF Acec|(3def Bc def2|fece aecA|BecA BAF2|
(3ABc EF Acec|(3def Bc def2|fece aecA|BecB A2:|
(3ABc|aece fece|aece fece|Aece aecA|BecA BAF2|
(3ABc EF Acec|(3def Bc def2|fece aecB|(3ABc Bc A2:|

%%%

